app/common/assets/icons/food/restaurant.svg

<svg xmlns="http://www.w3.org/2000/svg" width="32" height="32" viewBox="0 0 32 32" fill="none">
  <rect width="32" height="32" rx="16" fill="#616161"/>
  <path d="M8.90241 6.625C8.22074 6.625 7.62491 7.09917 7.50907 7.78167C7.31657 8.92083 7.04657 10.9121 7.06866 13.0421C7.08074 14.2254 7.87282 15.2892 9.11616 15.5675C9.29699 15.6083 9.48782 15.6458 9.68574 15.6783L8.91824 22.9883C8.80324 24.0833 9.48491 25.1837 10.6199 25.3417C10.7666 25.3621 10.9066 25.375 11.0257 25.375C11.1453 25.375 11.2853 25.3621 11.432 25.3417C12.567 25.1833 13.2487 24.0833 13.1337 22.9883L12.3662 15.6788C12.5641 15.6462 12.7549 15.6088 12.9357 15.5679C14.1791 15.2896 14.9712 14.2258 14.9832 13.0429C15.0049 10.9125 14.7349 8.92083 14.5416 7.78167C14.4262 7.09917 13.8303 6.62542 13.1487 6.62542H13.0278C12.9996 6.62539 12.9717 6.63108 12.9458 6.64214C12.9199 6.6532 12.8965 6.66941 12.877 6.68978C12.8575 6.71016 12.8424 6.73427 12.8325 6.76066C12.8226 6.78705 12.8182 6.81518 12.8195 6.84333L13.0045 10.9142C13.0076 10.9825 12.9972 11.0508 12.9739 11.1151C12.9506 11.1794 12.9148 11.2385 12.8687 11.2891C12.8226 11.3396 12.7669 11.3805 12.705 11.4095C12.643 11.4385 12.576 11.455 12.5076 11.4581C12.4393 11.4612 12.371 11.4508 12.3067 11.4275C12.2423 11.4042 12.1832 11.3685 12.1327 11.3223C12.0822 11.2762 12.0413 11.2206 12.0123 11.1586C11.9833 11.0967 11.9667 11.0296 11.9637 10.9612L11.7757 6.82417C11.7734 6.77052 11.7504 6.71985 11.7116 6.68274C11.6728 6.64563 11.6211 6.62495 11.5674 6.625H10.4841C10.4304 6.62495 10.3787 6.64563 10.3399 6.68274C10.3011 6.71985 10.2781 6.77052 10.2757 6.82417L10.0878 10.9608C10.0847 11.0292 10.0682 11.0962 10.0391 11.1582C10.0101 11.2201 9.96913 11.2757 9.9186 11.3219C9.86807 11.368 9.80895 11.4037 9.74462 11.427C9.68028 11.4502 9.612 11.4606 9.54366 11.4575C9.47531 11.4544 9.40825 11.4378 9.34631 11.4088C9.28436 11.3798 9.22874 11.3388 9.18262 11.2883C9.1365 11.2377 9.10079 11.1786 9.07751 11.1143C9.05424 11.05 9.04387 10.9817 9.04699 10.9133L9.23199 6.84292C9.23329 6.81476 9.22886 6.78664 9.21897 6.76024C9.20908 6.73385 9.19394 6.70974 9.17446 6.68937C9.15499 6.669 9.13158 6.65279 9.10566 6.64172C9.07974 6.63066 9.05184 6.62497 9.02366 6.625H8.90241Z" fill="#FCFCFD"/>
  <path d="M22.4058 15.6788C22.4168 15.6812 22.4166 15.6834 22.4065 15.6853L23.1733 22.9883C23.2883 24.0833 22.6066 25.1833 21.4716 25.3417C21.325 25.3621 21.185 25.375 21.0654 25.375C20.9462 25.375 20.8062 25.3621 20.6596 25.3417C19.5246 25.1838 18.8429 24.0833 18.9579 22.9883L19.7254 15.6783C19.7254 15.6783 22.2505 15.7147 22.4065 15.6853L22.4058 15.6788Z" fill="#FCFCFD"/>
  <ellipse cx="21.0657" cy="11.3516" rx="3.86719" ry="4.72656" fill="#FCFCFD"/>
</svg>

<svg xmlns="http://www.w3.org/2000/svg" width="32" height="32" fill="none"><rect width="32" height="32" fill="#344054" rx="16"/><path fill="#FCFCFD" d="M8.902 6.625A1.4 1.4 0 0 0 7.51 7.782c-.192 1.139-.462 3.13-.44 5.26a2.594 2.594 0 0 0 2.047 2.526c.181.04.372.078.57.11l-.768 7.31c-.115 1.095.567 2.196 1.702 2.354.147.02.287.033.406.033.12 0 .26-.013.406-.033 1.135-.159 1.817-1.259 1.702-2.354l-.768-7.31c.198-.032.389-.07.57-.11a2.594 2.594 0 0 0 2.047-2.525c.022-2.13-.248-4.122-.441-5.261a1.398 1.398 0 0 0-1.393-1.157h-.121a.208.208 0 0 0-.209.218l.185 4.071a.52.52 0 1 1-1.04.047l-.188-4.137a.208.208 0 0 0-.209-.199h-1.083a.208.208 0 0 0-.208.2l-.188 4.136a.52.52 0 0 1-1.01.153.52.52 0 0 1-.031-.2l.185-4.071a.208.208 0 0 0-.208-.218h-.122ZM22.406 15.679c.01.002.01.004 0 .006l.767 7.303c.115 1.095-.566 2.195-1.701 2.354a3.05 3.05 0 0 1-.407.033c-.119 0-.259-.013-.405-.033-1.135-.158-1.817-1.259-1.702-2.354l.767-7.31s2.525.037 2.681.007v-.006Z"/><ellipse cx="21.066" cy="11.352" fill="#FCFCFD" rx="3.867" ry="4.727"/></svg>
